X:131 
T:Milltown Lasses (reel), The 
F:file ID: cre.5/131mill_L
B:CRE5.150 (GearrchailÃÂÃÂÃÂÃÂ­haile an Mhuilinn)
M:4/4
Q:180
R:reel
K:C
EDDF ECCD|EDDF EGcG|EDDF ECCD|EGAB cAGF|
EDDF ECCD|EDDF EGcG|EDDF ECCD|EGAB cBAG||
Adde d2dc|Adde fdec|Adde d2dc|AGAB cGEC|
Adde d2dc|Adde fdeg|fdeg fdec|AcBd cAGF|]

%%%

